X:1
T:Back on the Street Again
M:4/4
L:1/4
K:G
 z z/2 F/2F/2 G A/2| B3/2 B/2 E2| z F/2F/2 G A/2B/2| c B A/2G/2 A|\
 z B B/2 A G/2| A B/2 G G/2 D| z G/2 F G/2 A| G B- B2| A3/2 A/2A/2 G F/2|\
 G2 z2| z F/2F/2 F15.9999925000037/23.999988000006 G15.9999925000037/23.999988000006 A15.9999925000037/23.999988000006|\
 B B/2 E3/2 z| z F/2F/2 G/2 A B/2| c B A/2G/2 A| z B/2A/2 G3/2 G/2|\
 A/2G/2 F/2 G G/2 D| z G/2 F G/2 A| G B- B2| A3/2 A/2 A15.9999925000037/23.999988000006 G15.9999925000037/23.999988000006 F15.9999925000037/23.999988000006|\
 G2 z2| z A/2A/2 A15.9999925000037/23.999988000006 B15.9999925000037/23.999988000006 c15.9999925000037/23.999988000006|\
 A2 z B/2c/2|B/2-A/2 G3/4 G/4- G E| D2 z z/2 A/2| A A/2 A/2- A3/2 A/2|\
 B A/2G/2 G A/2B/2| c B A/2 G A/2| A2 z2| z F/2F/2 F15.9999925000037/23.999988000006 G15.9999925000037/23.999988000006 A15.9999925000037/23.999988000006|\
 B3/2 B/2 E z| z F/2F/2 G/2A/2 B/2B/2| c B A z| z B B/2G/2 G| A F G z|\
 z G/2G/2 F15.9999925000037/23.999988000006 G15.9999925000037/23.999988000006 A15.9999925000037/23.999988000006|\
 G B- B2| A3/2 A/2| A15.9999925000037/23.999988000006 G15.9999925000037/23.999988000006 F15.9999925000037/23.999988000006|\
 G2 z2|
